src/svg/gist.svg

<svg height="16" width="12" xmlns="http://www.w3.org/2000/svg" viewBox="0 0 12 16">
  <path d="M7.5 5l2.5 2.5-2.5 2.5-0.75-0.75 1.75-1.75-1.75-1.75 0.75-0.75z m-3 0L2 7.5l2.5 2.5 0.75-0.75-1.75-1.75 1.75-1.75-0.75-0.75zM0 13V2c0-0.55 0.45-1 1-1h10c0.55 0 1 0.45 1 1v11c0 0.55-0.45 1-1 1H1c-0.55 0-1-0.45-1-1z m1 0h10V2H1v11z" />
</svg>

<?xml version="1.0" encoding="UTF-8" standalone="no"?>
<svg width="12px" height="16px" viewBox="0 0 12 16" version="1.1" xmlns="http://www.w3.org/2000/svg" xmlns:xlink="http://www.w3.org/1999/xlink">
    <!-- Generator: Sketch 3.7.1 (28215) - http://www.bohemiancoding.com/sketch -->
    <title>gist</title>
    <desc>Created with Sketch.</desc>
    <defs></defs>
    <g id="Octicons" stroke="none" stroke-width="1" fill="none" fill-rule="evenodd">
        <g id="gist" fill="#000000">
            <path d="M7.5,5 L10,7.5 L7.5,10 L6.75,9.25 L8.5,7.5 L6.75,5.75 L7.5,5 L7.5,5 Z M4.5,5 L2,7.5 L4.5,10 L5.25,9.25 L3.5,7.5 L5.25,5.75 L4.5,5 L4.5,5 Z M0,13 L0,2 C0,1.45 0.45,1 1,1 L11,1 C11.55,1 12,1.45 12,2 L12,13 C12,13.55 11.55,14 11,14 L1,14 C0.45,14 0,13.55 0,13 L0,13 Z M1,13 L11,13 L11,2 L1,2 L1,13 L1,13 Z" id="Shape"></path>
        </g>
    </g>
</svg>
